X: 37166
T: Sir Donat's Road
R: jig
M: 6/8
K: Gmajor
G2A|:B3 BAG|Bcd e3|deg edB|deB A2B|
GAB B2A|GBd e3|deg B2A|1 (G3 G2)A:|2 G3 GBd||
|:e3 edB|dgf e3|deg aga|b2a g2f|
e2g d2g|BAG AGE|DEG ABA|1 G3 GBd:|2 (G3 G2)A||

